flaticon/baby/bath.svg

<svg xmlns="http://www.w3.org/2000/svg" width="32" height="32" viewBox="0 0 24 24">
    <path d="M 24 13.625 C 24 12.679688 23.230469 11.910156 22.285156 11.910156 L 15.28125 11.910156 C 15.28125 11.902344 15.285156 11.898438 15.285156 11.890625 C 15.285156 9.171875 13.328125 6.859375 10.683594 6.386719 C 10.25 4.726562 8.753906 3.554688 7.011719 3.554688 C 4.917969 3.554688 3.214844 5.257812 3.214844 7.351562 C 3.214844 7.511719 3.226562 7.675781 3.25 7.84375 C 1.214844 8.851562 1.257812 10.558594 1.28125 11.597656 C 1.28125 11.707031 1.285156 11.8125 1.285156 11.910156 C 1.285156 11.929688 1.292969 11.949219 1.296875 11.96875 C 0.554688 12.15625 0 12.824219 0 13.625 C 0 14.421875 0.546875 15.085938 1.285156 15.277344 L 1.285156 15.875 C 1.285156 18.75 3.25 21.269531 6 21.988281 L 6 22.410156 C 6 23.238281 6.671875 23.910156 7.5 23.910156 C 8.253906 23.910156 8.878906 23.351562 8.984375 22.625 L 15.445312 22.625 C 15.546875 23.351562 16.175781 23.910156 16.929688 23.910156 C 17.753906 23.910156 18.429688 23.238281 18.429688 22.410156 L 18.429688 21.988281 C 21.179688 21.269531 23.144531 18.75 23.144531 15.875 L 23.144531 15.101562 C 23.652344 14.804688 24 14.257812 24 13.625 Z M 3.894531 8.492188 L 4.222656 8.351562 L 4.144531 8 C 4.097656 7.78125 4.070312 7.5625 4.070312 7.351562 C 4.070312 5.730469 5.390625 4.410156 7.011719 4.410156 C 8.441406 4.410156 9.65625 5.433594 9.902344 6.839844 L 9.957031 7.152344 L 10.273438 7.191406 C 12.640625 7.480469 14.429688 9.5 14.429688 11.886719 C 14.429688 11.894531 14.433594 11.902344 14.433594 11.910156 L 2.144531 11.910156 C 2.144531 11.804688 2.140625 11.695312 2.136719 11.578125 C 2.113281 10.539062 2.082031 9.246094 3.894531 8.492188 Z M 22.285156 15.875 C 22.285156 18.464844 20.449219 20.714844 17.914062 21.230469 L 17.570312 21.300781 L 17.570312 22.410156 C 17.570312 22.765625 17.28125 23.054688 16.929688 23.054688 C 16.574219 23.054688 16.285156 22.765625 16.285156 22.410156 L 16.285156 21.769531 L 8.144531 21.769531 L 8.144531 22.410156 C 8.144531 22.765625 7.855469 23.054688 7.5 23.054688 C 7.144531 23.054688 6.855469 22.765625 6.855469 22.410156 L 6.855469 21.300781 L 6.515625 21.230469 C 3.980469 20.714844 2.144531 18.464844 2.144531 15.875 L 2.144531 15.339844 L 22.285156 15.339844 Z M 22.285156 14.480469 L 1.714844 14.480469 C 1.242188 14.480469 0.855469 14.097656 0.855469 13.625 C 0.855469 13.152344 1.242188 12.769531 1.714844 12.769531 L 22.285156 12.769531 C 22.757812 12.769531 23.144531 13.152344 23.144531 13.625 C 23.144531 14.097656 22.757812 14.480469 22.285156 14.480469 Z M 22.285156 14.480469"/>
    <path d="M4.609375 19.207031C4.6875 19.265625 4.777344 19.292969 4.867188 19.292969 4.996094 19.292969 5.125 19.238281 5.207031 19.125 5.351562 18.9375 5.316406 18.667969 5.128906 18.527344 4.804688 18.277344 4.585938 17.953125 4.515625 17.617188 4.464844 17.386719 4.234375 17.238281 4.003906 17.289062 3.773438 17.339844 3.625 17.566406 3.675781 17.800781 3.792969 18.335938 4.125 18.835938 4.609375 19.207031zM6.316406 20.203125C7.535156 20.574219 8.808594 20.671875 10.0625 20.671875 10.605469 20.671875 11.140625 20.652344 11.667969 20.628906 11.90625 20.621094 12.089844 20.421875 12.078125 20.183594 12.070312 19.945312 11.851562 19.765625 11.632812 19.773438 9.953125 19.84375 8.183594 19.871094 6.5625 19.382812 6.335938 19.3125 6.097656 19.441406 6.027344 19.667969 5.960938 19.894531 6.089844 20.132812 6.316406 20.203125zM12.867188 5.445312C13.773438 5.445312 14.507812 4.710938 14.507812 3.804688 14.507812 2.898438 13.773438 2.160156 12.867188 2.160156 11.960938 2.160156 11.222656 2.898438 11.222656 3.804688 11.222656 4.710938 11.960938 5.445312 12.867188 5.445312zM12.867188 3.019531C13.300781 3.019531 13.652344 3.371094 13.652344 3.804688 13.652344 4.238281 13.300781 4.589844 12.867188 4.589844 12.433594 4.589844 12.082031 4.238281 12.082031 3.804688 12.082031 3.371094 12.433594 3.019531 12.867188 3.019531zM2.144531 4.304688C3.304688 4.304688 4.25 3.359375 4.25 2.195312 4.25 1.035156 3.304688.0898438 2.144531.0898438.980469.0898438.0351562 1.035156.0351562 2.195312.0351562 3.359375.980469 4.304688 2.144531 4.304688zM2.144531.945312C2.832031.945312 3.390625 1.507812 3.390625 2.195312 3.390625 2.886719 2.832031 3.445312 2.144531 3.445312 1.453125 3.445312.894531 2.886719.894531 2.195312.894531 1.507812 1.453125.945312 2.144531.945312zM9.855469 9.769531C9.855469 10.003906 9.664062 10.195312 9.429688 10.195312 9.191406 10.195312 9 10.003906 9 9.769531 9 9.53125 9.191406 9.339844 9.429688 9.339844 9.664062 9.339844 9.855469 9.53125 9.855469 9.769531zM17.570312 8.054688C17.570312 8.289062 17.378906 8.480469 17.144531 8.480469 16.90625 8.480469 16.714844 8.289062 16.714844 8.054688 16.714844 7.816406 16.90625 7.625 17.144531 7.625 17.378906 7.625 17.570312 7.816406 17.570312 8.054688zM8.144531 2.054688C8.144531 2.289062 7.949219 2.480469 7.714844 2.480469 7.476562 2.480469 7.285156 2.289062 7.285156 2.054688 7.285156 1.816406 7.476562 1.625 7.714844 1.625 7.949219 1.625 8.144531 1.816406 8.144531 2.054688zM8.144531 2.054688"/>
</svg>

<svg xmlns="http://www.w3.org/2000/svg" width="32" height="32" viewBox="0 0 24 24">
    <path d="M24 13.625c0-.945-.77-1.715-1.715-1.715h-7.004c0-.008.004-.012.004-.02a5.595 5.595 0 0 0-4.601-5.503 3.787 3.787 0 0 0-3.672-2.832 3.801 3.801 0 0 0-3.797 3.797c0 .16.012.324.035.492-2.035 1.008-1.992 2.715-1.969 3.754 0 .109.004.214.004.312 0 .02.008.04.012.059A1.713 1.713 0 0 0 0 13.625c0 .797.547 1.46 1.285 1.652v.598A6.34 6.34 0 0 0 6 21.988v.422a1.5 1.5 0 0 0 2.984.215h6.461a1.5 1.5 0 0 0 2.985-.215v-.422a6.34 6.34 0 0 0 4.715-6.113v-.773A1.71 1.71 0 0 0 24 13.625zM3.895 8.492l.328-.14L4.145 8a3.116 3.116 0 0 1-.075-.648A2.946 2.946 0 0 1 7.012 4.41a2.93 2.93 0 0 1 2.89 2.43l.055.312.316.04a4.737 4.737 0 0 1 4.157 4.695c0 .008.004.015.004.023H2.144c0-.105-.003-.215-.007-.332-.024-1.039-.055-2.332 1.758-3.086zm18.39 7.383c0 2.59-1.836 4.84-4.37 5.355l-.345.07v1.11c0 .356-.289.645-.64.645a.645.645 0 0 1-.645-.645v-.64h-8.14v.64a.645.645 0 0 1-1.29 0V21.3l-.34-.07a5.477 5.477 0 0 1-4.37-5.355v-.535h20.14zm0-1.395H1.715a.859.859 0 0 1-.86-.855c0-.473.387-.855.86-.855h20.57c.473 0 .86.382.86.855a.859.859 0 0 1-.86.855zm0 0"/>
    <path d="M4.61 19.207a.426.426 0 0 0 .257.086.414.414 0 0 0 .34-.168.424.424 0 0 0-.078-.598c-.324-.25-.543-.574-.613-.91a.43.43 0 1 0-.84.184c.117.535.449 1.035.933 1.406zm0 0M6.316 20.203c1.22.371 2.493.469 3.747.469.542 0 1.078-.02 1.605-.043a.423.423 0 0 0 .41-.445.438.438 0 0 0-.445-.41c-1.68.07-3.45.097-5.07-.391a.428.428 0 0 0-.536.285.434.434 0 0 0 .29.535zm0 0M12.867 5.445a1.644 1.644 0 0 0 0-3.285c-.906 0-1.644.738-1.644 1.645 0 .906.738 1.64 1.644 1.64zm0-2.425a.785.785 0 1 1 0 1.57.785.785 0 0 1 0-1.57zm0 0M2.145 4.305a2.11 2.11 0 0 0 2.105-2.11C4.25 1.035 3.305.09 2.145.09a2.11 2.11 0 0 0-2.11 2.105 2.11 2.11 0 0 0 2.11 2.11zm0-3.36a1.25 1.25 0 0 1 0 2.5 1.251 1.251 0 0 1 0-2.5zm0 0M9.855 9.77a.427.427 0 1 1-.853-.002.427.427 0 0 1 .853.002zm0 0M17.57 8.055a.427.427 0 1 1-.853-.002.427.427 0 0 1 .853.002zm0 0M8.145 2.055a.43.43 0 0 1-.86 0c0-.239.192-.43.43-.43a.43.43 0 0 1 .43.43zm0 0"/>
</svg>
